X: 404
T:Allegez moy
N: Derived from Jos3002-Allegez_moy.krn
C: Josquin des Prez
%%abc-version 2.0
%%abcx-abcm2ps-target-version 5.9.1 (29 Sep 2008)
%%abc-creator hum2abc beta
%%abcx-conversion-date 2019/02/12 16:15:55
%%abc-edited-by Jesse Rodin
%%abc-edited-by Will Watson 07/09/2011
%%abcx-initial-encoding-date 2011/09/07/
%%humdrum-veritas 3753251873
%%humdrum-veritas-data 2914996024
%%linebreak <none>
%%barnumbers 0
L: 1/4
M: 2/1
Q: 1/2=120
V: 1 clef=treble
V: 2 clef=treble-8
V: 3 clef=treble-8
V: 4 clef=treble-8
V: 5 clef=bass
V: 6 clef=bass
K: F
[V:1] z8 | 
[V:2] z8 | 
[V:3] z8 | 
[V:4] z8 | 
[V:5] z8 | 
[V:6] G,4B,2A,2 | 
[V:1] z8 | 
[V:2] z8 | 
[V:3] z8 | 
[V:4] z8 | 
[V:5] G,4B,2A,2 | 
[V:6] G,3F,D,4 | 
[V:1] z8 | 
[V:2] z8 | 
[V:3] G4B2A2 | 
[V:4] z8 | 
[V:5] G,3F,D,4 | 
[V:6] z2G,,2G,,2D,2 | 
[V:1] z8 | 
[V:2] G4B2A2 | 
[V:3] G3FD4 | 
[V:4] z8 | 
[V:5] z2G,,4D,2 | 
[V:6] G,,2G,2G,2F,2 | 
[V:1] G4B2A2 | 
[V:2] G3FD4 | 
[V:3] z8 | 
[V:4] z8 | 
[V:5] G,,2G,2G,2F,2 | 
[V:6] G,2G,,2G,,2D,2 | 
[V:1] G3FD4 | 
[V:2] z8 | 
[V:3] G4B2A2 | 
[V:4] z8 | 
[V:5] G,2G,,2G,,2D,2 | 
[V:6] G,,2G,2G,2F,2 | 
[V:1] z8 | 
[V:2] d4d2d2 | 
[V:3] G3FD4 | 
[V:4] G4B2A2 | 
[V:5] G,,2G,2G,2F,2 | 
[V:6] G,2G,,2G,,2D,2 | 
[V:1] z2D2F2F2 | 
[V:2] d4z4 | 
[V:3] z2d2d2d2 | 
[V:4] G3FD4 | 
[V:5] B,4A,4 | 
[V:6] G,,4z2D,2 | 
[V:1] G2G2B4- | 
[V:2] z8 | 
[V:3] B2G2d4- | 
[V:4] z8 | 
[V:5] z8 | 
[V:6] G,,2C,2B,,2G,,2 | 
[V:1] B4A4 | 
[V:2] z2d2d2d2 | 
[V:3] d4d4 | 
[V:4] z2D2F2F2 | 
[V:5] z4z2D,2 | 
[V:6] B,,3C,D,4 | 
[V:1] z2G2G3G | 
[V:2] B2G2d4- | 
[V:3] z8 | 
[V:4] G2G2B4- | 
[V:5] G,,2C,2B,,2G,,2 | 
[V:6] z8 | 
[V:1] G2G2^F4 | 
[V:2] d4d4 | 
[V:3] z8 | 
[V:4] B4A4 | 
[V:5] B,,3C,D,4 | 
[V:6] z8 | 
[V:1] G4z4 | 
[V:2] z8 | 
[V:3] z2B2c3c | 
[V:4] z2G2G3G | 
[V:5] z2D,2_E,3E, | 
[V:6] z2G,,2C,3C, | 
[V:1] z8 | 
[V:2] z8 | 
[V:3] d2B2c4 | 
[V:4] G2G2^F4 | 
[V:5] D,2D,2C,4 | 
[V:6] B,,2G,,2A,,4 | 
[V:1] z2G2G3G | 
[V:2] z2d2_e3_e | 
[V:3] B2G2c3c | 
[V:4] G4z4 | 
[V:5] D,4z4 | 
[V:6] G,,4z4 | 
[V:1] G2G2^F4 | 
[V:2] d2d2c4 | 
[V:3] B2G2A4 | 
[V:4] z8 | 
[V:5] z8 | 
[V:6] z8 | 
[V:1] G8 | 
[V:2] d2B2c3c | 
[V:3] G8 | 
[V:4] z2G2G3G | 
[V:5] z2D,2_E,3E, | 
[V:6] z2G,,2C,3C, | 
[V:1] z8 | 
[V:2] d2B2c4 | 
[V:3] z8 | 
[V:4] G2G2^F4 | 
[V:5] D,2D,2C,4 | 
[V:6] B,,2G,,2A,,4 | 
[V:1] z8 | 
[V:2] B4z2d2 | 
[V:3] z4B4 | 
[V:4] G8 | 
[V:5] D,4z4 | 
[V:6] G,,4z2G,,2 | 
[V:1] A4B2B2 | 
[V:2] f3ed4 | 
[V:3] A2F2G4 | 
[V:4] z8 | 
[V:5] z2D,2D,2D,2 | 
[V:6] D,3C,B,,4 | 
[V:1] c2c2c2B2- | 
[V:2] c4z4 | 
[V:3] A4z2d2 | 
[V:4] z8 | 
[V:5] E,4z4 | 
[V:6] A,,4z2G,,2 | 
[V:1] BAA4G2 | 
[V:2] z8 | 
[V:3] f3ed4 | 
[V:4] A4B2B2 | 
[V:5] z2D,2D,2D,2 | 
[V:6] D,3C,B,,4 | 
[V:1] A4z4 | 
[V:2] z8 | 
[V:3] c4z4 | 
[V:4] c2c2c2B2- | 
[V:5] E,2A,2G,2F,2- | 
[V:6] A,,2F,2E,2D,2- | 
[V:1] z8 | 
[V:2] z8 | 
[V:3] z8 | 
[V:4] BAA4G2 | 
[V:5] F,E,C,2D,4 | 
[V:6] D,C,A,,2B,,4 | 
[V:1] z2c2c2B2- | 
[V:2] z2e2e2f2- | 
[V:3] z2c2c2d2- | 
[V:4] A4z4 | 
[V:5] E,4z4 | 
[V:6] A,,4z4 | 
[V:1] BAA4G2 | 
[V:2] fec2d4 | 
[V:3] dcA2B4 | 
[V:4] z8 | 
[V:5] z8 | 
[V:6] z8 | 
[V:1] A4z4 | 
[V:2] c4z4 | 
[V:3] A4z4 | 
[V:4] z2c2c2B2- | 
[V:5] z2A,2G,2F,2- | 
[V:6] z2F,2E,2D,2- | 
[V:1] z8 | 
[V:2] z8 | 
[V:3] z4d4 | 
[V:4] BAA4G2 | 
[V:5] F,E,C,2D,4 | 
[V:6] D,C,A,,2B,,4 | 
[V:1] z8 | 
[V:2] z4d4- | 
[V:3] c3BA4 | 
[V:4] A4z4 | 
[V:5] E,4z2F,2 | 
[V:6] A,,4D,4 | 
[V:1] B4A2A2 | 
[V:2] d2d2d4 | 
[V:3] G4z4 | 
[V:4] z8 | 
[V:5] G,3F,D,4 | 
[V:6] G,,2G,4^F,2 | 
[V:1] G3FD4 | 
[V:2] d4z4 | 
[V:3] d6d2 | 
[V:4] z8 | 
[V:5] G,,4z2F,2 | 
[V:6] G,4z2D,2 | 
[V:1] z2D2F2F2 | 
[V:2] z8 | 
[V:3] d4d4 | 
[V:4] B4A2A2 | 
[V:5] G,3F,D,4 | 
[V:6] G,,2G,3^F,F,E, | 
[V:1] B4A2A2 | 
[V:2] d6d2 | 
[V:3] z8 | 
[V:4] G3FD4 | 
[V:5] G,,4z2F,2 | 
[V:6] G,4z2D,2 | 
[V:1] G3FD4 | 
[V:2] d4d4 | 
[V:3] d6d2 | 
[V:4] z8 | 
[V:5] (3G,2G,,2A,,2(3B,,3C,D,2 | 
[V:6] G,,2G,3^F,F,E, | 
[V:1] z2D2F2F2 | 
[V:2] z2d2d2d2 | 
[V:3] d4d4 | 
[V:4] B4A2A2 | 
[V:5] G,,4z4 | 
[V:6] G,4z2D,2 | 
[V:1] G2G2B4- | 
[V:2] B2G2d4- | 
[V:3] z8 | 
[V:4] G3FD4 | 
[V:5] z8 | 
[V:6] G,,2C,2B,,2G,,2 | 
[V:1] B4A4 | 
[V:2] d4d4 | 
[V:3] z2d2d2d2 | 
[V:4] z2D2F2F2 | 
[V:5] z4z2D,2 | 
[V:6] B,,3C,D,4 | 
[V:1] z2G2G3G | 
[V:2] z8 | 
[V:3] B2G2d4- | 
[V:4] G2G2B4- | 
[V:5] G,,2C,2B,,2G,,2 | 
[V:6] z8 | 
[V:1] G2G2^F4 | 
[V:2] z8 | 
[V:3] d4d4 | 
[V:4] B4A4 | 
[V:5] B,,3C,D,4 | 
[V:6] z8 | 
[V:1] G8 | 
[V:2] z2B2c3c | 
[V:3] z8 | 
[V:4] z2G2G3G | 
[V:5] z2D,2_E,3E, | 
[V:6] z2G,,2C,3C, | 
[V:1] z8 | 
[V:2] d2B2c4 | 
[V:3] z8 | 
[V:4] G2G2^F4 | 
[V:5] D,2D,2C,4 | 
[V:6] B,,2G,,2A,,4 | 
[V:1] z4z2G2 | 
[V:2] B2d2_e2d2 | 
[V:3] z2B2c2B2 | 
[V:4] G8- | 
[V:5] D,2G,2G,2G,2 | 
[V:6] G,,2G,,2C,2G,,2 | 
[V:1] G2B2G2G2 | 
[V:2] _e2d2_e4 | 
[V:3] c2B2c4 | 
[V:4] G8- | 
[V:5] _E,2G,2E,3F, | 
[V:6] C,2B,,2C,4 | 
[V:1] B6G2 | 
[V:2] d8- | 
[V:3] B8- | 
[V:4] G8- | 
[V:5] G,8- | 
[V:6] G,,8- | 
[V:1] G8 |]  
[V:2] d8 |]  
[V:3] B8 |]  
[V:4] G8 |]  
[V:5] G,8 |]  
[V:6] G,,8 |]  



